X:194
T:Kelloholm Jig, The
C:Peter Hyssett
R:Jig
M:6/8
%%printtempo 0
Q:180
K:G
G|\
"G"D2B B^AB| d^cd BGE|D2B B^AB|"D7"dcB c3|
D2 A A^GA| cBc AFE|D2A A^GA| "G"ed^c d2G|
D2B B^AB|d^cd BGE|D2B B^AB| "D7"dcB c3|
D2A A^GA|cBc AFE| D2A A^GA| cBA "G"G3|
DGB d2d| ed^c dBG|DGB dcB| "D7"c2A A3|
DFA c2c|dcB cAF|DFA c2c|"G"ed^c d3|
DGB d2d|ed^c dBG|DGB dBG| "C"F2E E3|
"Am"EAc ecA| "G"DGB dBG| "D7"FAc e2F|"G" G3-G3|]
